icons/claude-light.svg

<svg width="256" height="256" viewBox="0 0 256 256" fill="none" xmlns="http://www.w3.org/2000/svg">
<path d="M196 0H60C26.8629 0 0 26.8629 0 60V196C0 229.137 26.8629 256 60 256H196C229.137 256 256 229.137 256 196V60C256 26.8629 229.137 0 196 0Z" fill="#F4F2ED"/>
<path d="M83.8418 125.727L112.758 109.514L113.242 108.101L112.758 107.32H111.344L106.506 107.022L89.9823 106.576L75.6544 105.981L61.7732 105.237L58.2749 104.494L55 100.18L55.3349 98.023L58.2749 96.0521L62.4803 96.424L71.7841 97.0562L85.7397 98.023L95.8623 98.618L110.86 100.18H113.242L113.577 99.213L112.758 98.618L112.125 98.023L97.6858 88.2429L82.0554 77.9049L73.8681 71.955L69.4395 68.9428L67.2066 66.1166L66.239 59.9436L70.2582 55.5183L75.6544 55.8902L77.0314 56.2621L82.502 60.4642L94.1876 69.5006L109.446 80.7311L111.679 82.5904L112.572 81.9583L112.684 81.512L111.679 79.8386L103.38 64.8523L94.5225 49.6056L90.5777 43.2838L89.5357 39.4908C89.1635 37.9289 88.903 36.6274 88.903 35.0283L93.4805 28.8181L96.0111 28L102.114 28.8181L104.682 31.0493L108.478 39.7139L114.619 53.3615L124.146 71.9178L126.937 77.4215L128.426 82.5161L128.984 84.0779H129.951V83.1854L130.733 72.7359L132.184 59.9064L133.598 43.3954L134.082 38.747L136.39 33.169L140.967 30.1568L144.54 31.8674L147.48 36.0696L147.07 38.7842L145.321 50.1262L141.897 67.9016L139.665 79.8014H140.967L142.456 78.3139L148.485 70.3187L158.607 57.6752L163.073 52.6549L168.283 47.1141L171.632 44.4738H177.959L182.611 51.3906L180.527 58.5305L174.014 66.786L168.618 73.7771L160.877 84.1895L156.039 92.5194L156.486 93.1887L157.639 93.0772L175.131 89.3585L184.583 87.6479L195.859 85.7141L200.958 88.0941L201.516 90.5113L199.507 95.4571L187.449 98.4321L173.307 101.258L152.243 106.241L151.983 106.427L152.281 106.799L161.77 107.692L165.827 107.915H175.763L194.259 109.291L199.097 112.489L202 116.393L201.516 119.368L194.073 123.161L184.025 120.781L160.579 115.203L152.541 113.195H151.425V113.865L158.123 120.41L170.404 131.491L185.774 145.771L186.556 149.304L184.583 152.093L182.499 151.795L168.99 141.643L163.78 137.069L151.983 127.14H151.201V128.182L153.918 132.161L168.283 153.729L169.027 160.348L167.985 162.505L164.264 163.807L160.17 163.063L151.759 151.275L143.088 137.999L136.092 126.099L135.236 126.583L131.105 171.021L129.17 173.289L124.704 175L120.983 172.174L119.01 167.6L120.983 158.563L123.364 146.775L125.299 137.404L127.049 125.764L128.091 121.897L128.016 121.637L127.16 121.748L118.377 133.797L105.017 151.833L94.4481 163.137L91.9175 164.141L87.5261 161.873L87.9354 157.82L90.3916 154.212L105.017 135.619L113.837 124.091L119.531 117.435L119.494 116.468H119.159L80.3063 141.68L73.3843 142.573L70.4071 139.784L70.7792 135.21L72.1934 133.722L83.879 125.69L83.8418 125.727Z" fill="#D97757"/>
<path d="M73.3723 225.227C67.9702 225.227 64.2791 222.348 62.5358 217.917C61.6254 215.608 61.1765 213.157 61.2122 210.69C61.2122 203.257 64.6988 198.096 72.4038 198.096C77.5799 198.096 80.7759 200.255 82.5945 205.405H84.8113L84.51 198.301C81.4108 196.389 77.5368 195.423 72.8234 195.423C66.1838 195.423 60.5342 198.26 57.392 203.38C55.769 206.083 54.9434 209.157 55.003 212.273C55.003 217.958 57.8117 222.996 63.0846 225.792C65.9705 227.265 69.2082 227.995 72.4791 227.91C77.6229 227.91 81.7014 226.974 85.3171 225.34L86.2533 217.506H83.9935C82.6376 221.083 81.0234 223.232 78.3439 224.373C77.031 224.939 75.3738 225.227 73.3723 225.227ZM96.6701 198.096L96.8853 194.6H95.3572L88.5562 196.553V197.612L91.5693 198.949V223.397C91.5693 225.062 90.6762 225.432 88.341 225.71V227.499H99.9092V225.71C97.5633 225.432 96.6809 225.062 96.6809 223.397V198.106L96.6701 198.096ZM142.674 227.91H143.567L151.39 226.491V224.661L150.293 224.579C148.463 224.414 147.99 224.055 147.99 222.625V209.589L148.205 205.405H146.968L139.575 206.423V208.212L140.296 208.335C142.297 208.613 142.889 209.147 142.889 210.484V222.101C140.974 223.52 139.144 224.414 136.971 224.414C134.56 224.414 133.064 223.242 133.064 220.508V209.6L133.279 205.415H132.01L124.606 206.433V208.222L125.37 208.345C127.372 208.623 127.963 209.158 127.963 210.494V221.217C127.963 225.761 130.654 227.92 134.937 227.92C138.208 227.92 140.888 226.255 142.9 223.941L142.685 227.92L142.674 227.91ZM121.173 213.445C121.173 207.636 117.945 205.405 112.112 205.405C106.968 205.405 103.234 207.441 103.234 210.813C103.234 211.82 103.611 212.591 104.375 213.126L108.292 212.633C108.12 211.502 108.034 210.813 108.034 210.525C108.034 208.613 109.099 207.646 111.262 207.646C114.458 207.646 116.072 209.795 116.072 213.249V214.38L108.002 216.693C105.311 217.393 103.783 217.999 102.761 219.418C102.219 220.286 101.957 221.287 102.008 222.297C102.008 225.586 104.375 227.91 108.421 227.91C111.348 227.91 113.942 226.645 116.202 224.25C117.009 226.645 118.246 227.91 120.452 227.91C122.239 227.91 123.853 227.221 125.295 225.874L124.864 224.455C124.24 224.62 123.637 224.702 123.003 224.702C121.765 224.702 121.173 223.767 121.173 221.937V213.445ZM110.843 224.62C108.636 224.62 107.27 223.397 107.27 221.248C107.27 219.788 107.991 218.935 109.53 218.441L116.072 216.457V222.461C113.985 223.972 112.758 224.62 110.843 224.62ZM178.96 226.491V224.661L177.852 224.579C176.023 224.414 175.56 224.055 175.56 222.625V198.096L175.775 194.6H174.236L167.435 196.553V197.612L170.448 198.949V206.988C168.752 205.877 166.724 205.322 164.67 205.405C157.912 205.405 152.639 210.319 152.639 217.67C152.639 223.726 156.427 227.91 162.668 227.91C165.896 227.91 168.705 226.409 170.448 224.085L170.233 227.91H171.137L178.96 226.491ZM164.799 207.842C168.027 207.842 170.448 209.631 170.448 212.92V222.173C169.713 222.874 168.838 223.426 167.875 223.797C166.911 224.167 165.88 224.35 164.842 224.332C160.215 224.332 157.869 220.837 157.869 216.169C157.869 210.926 160.548 207.842 164.799 207.842ZM195.5 212.468C194.898 209.754 193.154 208.212 190.733 208.212C187.117 208.212 184.61 210.813 184.61 214.545C184.61 220.066 187.666 223.643 192.606 223.643C194.225 223.628 195.811 223.206 197.207 222.422C198.602 221.637 199.758 220.516 200.558 219.171L202 219.541C201.354 224.332 196.813 227.91 191.239 227.91C184.696 227.91 180.187 223.283 180.187 216.704C180.187 210.073 185.084 205.405 191.626 205.405C196.512 205.405 199.955 208.212 201.064 213.085L184.018 218.081V215.881L195.5 212.478V212.468Z" fill="#131313"/>
</svg>

<svg xmlns="http://www.w3.org/2000/svg" width="256" height="256" fill="none"><path fill="#F4F2ED" d="M196 0H60C26.863 0 0 26.863 0 60v136c0 33.137 26.863 60 60 60h136c33.137 0 60-26.863 60-60V60c0-33.137-26.863-60-60-60"/><path fill="#D97757" d="m83.842 125.727 28.916-16.213.484-1.413-.484-.781h-1.414l-4.838-.298-16.524-.446-14.328-.595-13.88-.744-3.5-.743L55 100.18l.335-2.157 2.94-1.97 4.205.371 9.304.632 13.956.967 10.122.595 14.998 1.562h2.382l.335-.967-.819-.595-.633-.595-14.44-9.78-15.63-10.338-8.187-5.95-4.428-3.012-2.233-2.826-.968-6.173 4.02-4.426 5.395.372 1.377.372 5.471 4.202 11.686 9.037 15.258 11.23 2.233 1.86.893-.633.112-.446-1.005-1.673-8.299-14.987-8.858-15.246-3.944-6.322-1.042-3.793c-.373-1.562-.633-2.864-.633-4.463l4.578-6.21L96.01 28l6.103.818 2.568 2.231 3.796 8.665 6.141 13.648 9.527 18.556 2.791 5.503 1.489 5.095.558 1.562h.967v-.893l.782-10.45 1.451-12.829 1.414-16.51.484-4.649 2.308-5.578 4.577-3.012 3.573 1.71 2.94 4.203-.41 2.714-1.749 11.342-3.424 17.776-2.232 11.9h1.302l1.489-1.488 6.029-7.995 10.122-12.644 4.466-5.02 5.21-5.54 3.349-2.641h6.327l4.652 6.917-2.084 7.14-6.513 8.255-5.396 6.991-7.741 10.412-4.838 8.33.447.67 1.153-.112 17.492-3.718 9.452-1.711 11.276-1.934 5.099 2.38.558 2.417-2.009 4.946-12.058 2.975-14.142 2.826-21.064 4.983-.26.186.298.372 9.489.893 4.057.223h9.936l18.496 1.376 4.838 3.198 2.903 3.904-.484 2.975-7.443 3.793-10.048-2.38-23.446-5.578-8.038-2.008h-1.116v.67l6.698 6.545 12.281 11.081 15.37 14.28.782 3.533-1.973 2.789-2.084-.298-13.509-10.152-5.21-4.574-11.797-9.929h-.782v1.042l2.717 3.979 14.365 21.568.744 6.619-1.042 2.157-3.721 1.302-4.094-.744-8.411-11.788-8.671-13.276-6.996-11.9-.856.484-4.131 44.438-1.935 2.268-4.466 1.711-3.721-2.826-1.973-4.574 1.973-9.037 2.381-11.788 1.935-9.371 1.75-11.64 1.042-3.867-.075-.26-.856.111-8.783 12.049-13.36 18.036-10.569 11.304-2.53 1.004-4.392-2.268.41-4.053 2.456-3.608 14.625-18.593 8.82-11.528 5.694-6.656-.037-.967h-.335L80.306 141.68l-6.922.893-2.977-2.789.372-4.574 1.414-1.488 11.686-8.032z"/><path fill="#131313" d="M73.372 225.227c-5.402 0-9.093-2.879-10.836-7.31a18.9 18.9 0 0 1-1.324-7.227c0-7.433 3.487-12.594 11.192-12.594 5.176 0 8.372 2.159 10.19 7.309h2.217l-.301-7.104c-3.1-1.912-6.973-2.878-11.687-2.878-6.64 0-12.289 2.837-15.431 7.957a16.64 16.64 0 0 0-2.389 8.893c0 5.685 2.809 10.723 8.082 13.519a19.6 19.6 0 0 0 9.394 2.118c5.144 0 9.222-.936 12.838-2.57l.936-7.834h-2.26c-1.355 3.577-2.97 5.726-5.65 6.867-1.312.566-2.97.854-4.97.854m23.298-27.131.215-3.496h-1.528l-6.8 1.953v1.059l3.012 1.337v24.448c0 1.665-.893 2.035-3.228 2.313v1.789H99.91v-1.789c-2.346-.278-3.228-.648-3.228-2.313v-25.291zm46.004 29.814h.893l7.823-1.419v-1.83l-1.097-.082c-1.83-.165-2.303-.524-2.303-1.954v-13.036l.215-4.184h-1.237l-7.393 1.018v1.789l.721.123c2.001.278 2.593.812 2.593 2.149v11.617c-1.915 1.419-3.745 2.313-5.918 2.313-2.411 0-3.907-1.172-3.907-3.906V209.6l.215-4.185h-1.269l-7.404 1.018v1.789l.764.123c2.002.278 2.593.813 2.593 2.149v10.723c0 4.544 2.691 6.703 6.974 6.703 3.271 0 5.951-1.665 7.963-3.979l-.215 3.979zm-21.501-14.465c0-5.809-3.228-8.04-9.061-8.04-5.144 0-8.878 2.036-8.878 5.408 0 1.007.377 1.778 1.141 2.313l3.917-.493c-.172-1.131-.258-1.82-.258-2.108 0-1.912 1.065-2.879 3.228-2.879 3.196 0 4.81 2.149 4.81 5.603v1.131l-8.07 2.313c-2.691.7-4.219 1.306-5.241 2.725a4.96 4.96 0 0 0-.753 2.879c0 3.289 2.367 5.613 6.413 5.613 2.927 0 5.521-1.265 7.781-3.66.807 2.395 2.044 3.66 4.25 3.66 1.787 0 3.401-.689 4.843-2.036l-.431-1.419a7.2 7.2 0 0 1-1.861.247c-1.238 0-1.83-.935-1.83-2.765zm-10.33 11.175c-2.207 0-3.573-1.223-3.573-3.372 0-1.46.721-2.313 2.26-2.807l6.542-1.984v6.004c-2.087 1.511-3.314 2.159-5.229 2.159m68.117 1.871v-1.83l-1.108-.082c-1.829-.165-2.292-.524-2.292-1.954v-24.529l.215-3.496h-1.539l-6.801 1.953v1.059l3.013 1.337v8.039a9.83 9.83 0 0 0-5.778-1.583c-6.758 0-12.031 4.914-12.031 12.265 0 6.056 3.788 10.24 10.029 10.24 3.228 0 6.037-1.501 7.78-3.825l-.215 3.825h.904zM164.8 207.842c3.228 0 5.649 1.789 5.649 5.078v9.253a7.8 7.8 0 0 1-2.573 1.624 8.1 8.1 0 0 1-3.033.535c-4.627 0-6.973-3.495-6.973-8.163 0-5.243 2.679-8.327 6.93-8.327m30.701 4.626c-.602-2.714-2.346-4.256-4.767-4.256-3.616 0-6.123 2.601-6.123 6.333 0 5.521 3.056 9.098 7.996 9.098a9.6 9.6 0 0 0 4.601-1.221 9.06 9.06 0 0 0 3.351-3.251l1.442.37c-.646 4.791-5.187 8.369-10.761 8.369-6.543 0-11.052-4.627-11.052-11.206 0-6.631 4.897-11.299 11.439-11.299 4.886 0 8.329 2.807 9.438 7.68l-17.046 4.996v-2.2l11.482-3.403z"/></svg>
